public/flask.svg

<?xml version="1.0" encoding="UTF-8" standalone="no"?>
<svg
   version="1.0"
   width="1121.000000pt"
   height="1280.000000pt"
   viewBox="0 0 1121.000000 1280.000000"
   preserveAspectRatio="xMidYMid meet"
   id="svg182"
   sodipodi:docname="flask.svg"
   inkscape:version="1.2.1 (9c6d41e410, 2022-07-14)"
   xmlns:inkscape="http://www.inkscape.org/namespaces/inkscape"
   xmlns:sodipodi="http://sodipodi.sourceforge.net/DTD/sodipodi-0.dtd"
   xmlns="http://www.w3.org/2000/svg"
   xmlns:svg="http://www.w3.org/2000/svg">
  <defs
     id="defs186" />
  <sodipodi:namedview
     id="namedview184"
     pagecolor="#ffffff"
     bordercolor="#000000"
     borderopacity="0.25"
     inkscape:showpageshadow="2"
     inkscape:pageopacity="0.0"
     inkscape:pagecheckerboard="0"
     inkscape:deskcolor="#d1d1d1"
     inkscape:document-units="pt"
     showgrid="false"
     inkscape:zoom="0.47695313"
     inkscape:cx="746.40459"
     inkscape:cy="853.33333"
     inkscape:window-width="1920"
     inkscape:window-height="1046"
     inkscape:window-x="1909"
     inkscape:window-y="78"
     inkscape:window-maximized="1"
     inkscape:current-layer="svg182" />
  <g
     transform="translate(0.000000,1280.000000) scale(0.100000,-0.100000)"
     fill="#000000"
     stroke="none"
     id="g180"
     style="fill:#ececec">
    <path
       d="M3406 12575 c-89 -31 -139 -101 -139 -190 0 -72 18 -102 147 -243 277 -305 386 -545 416 -912 6 -69 16 -836 24 -1705 l13 -1580 -492 -735 c-270 -404 -1012 -1513 -1647 -2465 -1093 -1638 -1160 -1739 -1241 -1905 -191 -392 -277 -731 -277 -1095 1 -485 169 -885 493 -1170 192 -170 461 -293 747 -342 100 -17 303 -18 4135 -18 l4030 0 115 22 c368 71 630 198 854 414 113 108 193 213 260 339 165 315 200 724 96 1136 -81 323 -262 685 -505 1014 -35 47 -755 1145 -1601 2440 l-1539 2355 -3 75 c-17 535 -55 2395 -56 2785 -1 451 1 521 17 605 57 301 172 518 417 784 45 49 88 104 96 122 36 86 3 194 -75 249 l-43 30 -2101 2 c-1787 2 -2108 0 -2141 -12z m3738 -422 c-156 -235 -264 -485 -298 -693 -26 -156 -38 -408 -31 -617 l7 -193 -488 0 c-453 0 -492 -2 -529 -19 -147 -66 -154 -281 -12 -362 l42 -24 498 -3 497 -3 1 -132 c0 -73 8 -426 17 -785 l17 -652 -100 0 c-424 -2 -930 -13 -949 -20 -39 -14 -88 -63 -107 -105 -47 -102 3 -232 106 -277 28 -12 294 -17 958 -18 l107 0 0 -179 c0 -98 4 -202 10 -231 8 -44 66 -138 384 -623 l373 -572 -141 -6 c-77 -4 -313 -7 -523 -8 -210 -1 -393 -5 -406 -10 -40 -15 -89 -63 -108 -106 -46 -101 -6 -214 96 -268 39 -21 50 -21 644 -24 516 -1 611 1 649 13 24 9 45 14 47 12 8 -7 557 -853 561 -862 5 -13 -571 -12 -3431 4 -1028 5 -1983 10 -2121 10 l-251 0 803 1204 c523 784 805 1216 809 1239 4 19 2 509 -4 1088 -6 580 -11 1295 -11 1590 0 622 -9 786 -56 1004 -35 160 -129 372 -245 550 l-58 90 527 5 c290 3 1024 6 1631 8 l1103 2 -18 -27z m-6014 -11389 c0 -2 -9 0 -20 6 -11 6 -20 13 -20 16 0 2 9 0 20 -6 11 -6 20 -13 20 -16z m120 -54 c8 -5 11 -10 5 -10 -5 0 -17 5 -25 10 -8 5 -10 10 -5 10 6 0 17 -5 25 -10z"
       id="path160"
       style="fill:#ececec" />
    <path
       d="M6740 12017 l-75 -42 45 -3 c39 -3 48 0 68 25 23 28 45 63 40 63 -2 0 -37 -19 -78 -43z"
       id="path162"
       style="fill:#ececec" />
    <path
       d="M4390 11930 c98 -144 153 -304 170 -494 8 -94 30 -2347 30 -3065 0 -129 2 -232 5 -230 2 3 5 213 5 466 1 392 3 463 15 473 8 7 15 18 15 24 0 11 87 238 121 313 10 24 19 47 19 53 0 6 9 29 19 53 10 23 42 103 71 177 60 155 69 178 81 202 5 10 9 22 9 28 0 6 8 29 19 53 10 23 33 80 51 127 18 47 41 104 51 127 11 24 19 47 19 53 0 6 9 29 19 53 11 23 28 67 40 97 l20 55 2 -50 c1 -27 5 -160 9 -295 4 -146 5 16 3 400 -2 355 -6 671 -9 704 -18 194 -159 363 -450 539 -72 43 -322 177 -368 196 -4 2 11 -25 34 -59z m777 -1327 c-2 -16 -4 -5 -4 22 0 28 2 40 4 28 2 -13 2 -35 0 -50z m0 -85 c-3 -7 -5 -2 -5 12 0 14 2 19 5 13 2 -7 2 -19 0 -25z m-560 -1380 c-3 -7 -5 -2 -5 12 0 14 2 19 5 13 2 -7 2 -19 0 -25z"
       id="path164"
       style="fill:#ececec" />
    <path
       d="M3900 6550 c-6 -11 -8 -20 -6 -20 3 0 10 9 16 20 6 11 8 20 6 20 -3 0 -10 -9 -16 -20z"
       id="path166"
       style="fill:#ececec" />
    <path
       d="M3850 6470 c-6 -11 -8 -20 -6 -20 3 0 10 9 16 20 6 11 8 20 6 20 -3 0 -10 -9 -16 -20z"
       id="path168"
       style="fill:#ececec" />
    <path
       d="M3770 6340 c-6 -11 -8 -20 -6 -20 3 0 10 9 16 20 6 11 8 20 6 20 -3 0 -10 -9 -16 -20z"
       id="path170"
       style="fill:#ececec" />
    <path
       d="M3720 6260 c-6 -11 -8 -20 -6 -20 3 0 10 9 16 20 6 11 8 20 6 20 -3 0 -10 -9 -16 -20z"
       id="path172"
       style="fill:#ececec" />
    <path
       d="M3688 6208 c-8 -13 -24 -41 -37 -63 -26 -47 3 -10 37 47 24 40 24 54 0 16z"
       id="path174"
       style="fill:#ececec" />
    <path
       d="M3614 6088 c-4 -7 -14 -24 -22 -38 -14 -24 -13 -24 3 -5 20 24 37 55 31 55 -3 0 -8 -6 -12 -12z"
       id="path176"
       style="fill:#ececec" />
    <path
       d="M3386 5720 c-102 -166 -186 -303 -186 -305 0 -3 30 -4 68 -3 56 1 59 2 19 5 -46 4 -48 5 -44 31 3 15 78 146 167 292 89 146 164 268 167 273 2 4 2 7 0 7 -3 0 -88 -135 -191 -300z"
       id="path178"
       style="fill:#ececec" />
  </g>
</svg>

<?xml version="1.0" encoding="UTF-8" standalone="no"?>
<!DOCTYPE svg PUBLIC "-//W3C//DTD SVG 1.1//EN" "http://www.w3.org/Graphics/SVG/1.1/DTD/svg11.dtd">
<svg width="100%" height="100%" viewBox="0 0 480 480" version="1.1" xmlns="http://www.w3.org/2000/svg" xmlns:xlink="http://www.w3.org/1999/xlink" xml:space="preserve" xmlns:serif="http://www.serif.com/" style="fill-rule:evenodd;clip-rule:evenodd;stroke-linejoin:round;stroke-miterlimit:2;">
    <g transform="matrix(0.25238,0,0,0.25238,240,240)">
        <g id="flask.svg" transform="matrix(1,0,0,1,-560.5,-640)">
            <g id="g180" transform="matrix(0.1,0,0,-0.1,0,1280)">
                <path id="path160" d="M3406,12575C3317,12544 3267,12474 3267,12385C3267,12313 3285,12283 3414,12142C3691,11837 3800,11597 3830,11230C3836,11161 3846,10394 3854,9525L3867,7945L3375,7210C3105,6806 2363,5697 1728,4745C635,3107 568,3006 487,2840C296,2448 210,2109 210,1745C211,1260 379,860 703,575C895,405 1164,282 1450,233C1550,216 1753,215 5585,215L9615,215L9730,237C10098,308 10360,435 10584,651C10697,759 10777,864 10844,990C11009,1305 11044,1714 10940,2126C10859,2449 10678,2811 10435,3140C10400,3187 9680,4285 8834,5580L7295,7935L7292,8010C7275,8545 7237,10405 7236,10795C7235,11246 7237,11316 7253,11400C7310,11701 7425,11918 7670,12184C7715,12233 7758,12288 7766,12306C7802,12392 7769,12500 7691,12555L7648,12585L5547,12587C3760,12589 3439,12587 3406,12575ZM7144,12153C6988,11918 6880,11668 6846,11460C6820,11304 6808,11052 6815,10843L6822,10650L6334,10650C5881,10650 5842,10648 5805,10631C5658,10565 5651,10350 5793,10269L5835,10245L6333,10242L6830,10239L6831,10107C6831,10034 6839,9681 6848,9322L6865,8670L6765,8670C6341,8668 5835,8657 5816,8650C5777,8636 5728,8587 5709,8545C5662,8443 5712,8313 5815,8268C5843,8256 6109,8251 6773,8250L6880,8250L6880,8071C6880,7973 6884,7869 6890,7840C6898,7796 6956,7702 7274,7217L7647,6645L7506,6639C7429,6635 7193,6632 6983,6631C6773,6630 6590,6626 6577,6621C6537,6606 6488,6558 6469,6515C6423,6414 6463,6301 6565,6247C6604,6226 6615,6226 7209,6223C7725,6222 7820,6224 7858,6236C7882,6245 7903,6250 7905,6248C7913,6241 8462,5395 8466,5386C8471,5373 7895,5374 5035,5390C4007,5395 3052,5400 2914,5400L2663,5400L3466,6604C3989,7388 4271,7820 4275,7843C4279,7862 4277,8352 4271,8931C4265,9511 4260,10226 4260,10521C4260,11143 4251,11307 4204,11525C4169,11685 4075,11897 3959,12075L3901,12165L4428,12170C4718,12173 5452,12176 6059,12178L7162,12180L7144,12153ZM1130,764C1130,762 1121,764 1110,770C1099,776 1090,783 1090,786C1090,788 1099,786 1110,780C1121,774 1130,767 1130,764ZM1250,710C1258,705 1261,700 1255,700C1250,700 1238,705 1230,710C1222,715 1220,720 1225,720C1231,720 1242,715 1250,710Z" style="fill:rgb(236,236,236);fill-rule:nonzero;"/>
                <path id="path162" d="M6740,12017L6665,11975L6710,11972C6749,11969 6758,11972 6778,11997C6801,12025 6823,12060 6818,12060C6816,12060 6781,12041 6740,12017Z" style="fill:rgb(236,236,236);fill-rule:nonzero;"/>
                <path id="path164" d="M4390,11930C4488,11786 4543,11626 4560,11436C4568,11342 4590,9089 4590,8371C4590,8242 4592,8139 4595,8141C4597,8144 4600,8354 4600,8607C4601,8999 4603,9070 4615,9080C4623,9087 4630,9098 4630,9104C4630,9115 4717,9342 4751,9417C4761,9441 4770,9464 4770,9470C4770,9476 4779,9499 4789,9523C4799,9546 4831,9626 4860,9700C4920,9855 4929,9878 4941,9902C4946,9912 4950,9924 4950,9930C4950,9936 4958,9959 4969,9983C4979,10006 5002,10063 5020,10110C5038,10157 5061,10214 5071,10237C5082,10261 5090,10284 5090,10290C5090,10296 5099,10319 5109,10343C5120,10366 5137,10410 5149,10440L5169,10495L5171,10445C5172,10418 5176,10285 5180,10150C5184,10004 5185,10166 5183,10550C5181,10905 5177,11221 5174,11254C5156,11448 5015,11617 4724,11793C4652,11836 4402,11970 4356,11989C4352,11991 4367,11964 4390,11930ZM5167,10603C5165,10587 5163,10598 5163,10625C5163,10653 5165,10665 5167,10653C5169,10640 5169,10618 5167,10603ZM5167,10518C5164,10511 5162,10516 5162,10530C5162,10544 5164,10549 5167,10543C5169,10536 5169,10524 5167,10518ZM4607,9138C4604,9131 4602,9136 4602,9150C4602,9164 4604,9169 4607,9163C4609,9156 4609,9144 4607,9138Z" style="fill:rgb(236,236,236);fill-rule:nonzero;"/>
                <path id="path166" d="M3900,6550C3894,6539 3892,6530 3894,6530C3897,6530 3904,6539 3910,6550C3916,6561 3918,6570 3916,6570C3913,6570 3906,6561 3900,6550Z" style="fill:rgb(236,236,236);fill-rule:nonzero;"/>
                <path id="path168" d="M3850,6470C3844,6459 3842,6450 3844,6450C3847,6450 3854,6459 3860,6470C3866,6481 3868,6490 3866,6490C3863,6490 3856,6481 3850,6470Z" style="fill:rgb(236,236,236);fill-rule:nonzero;"/>
                <path id="path170" d="M3770,6340C3764,6329 3762,6320 3764,6320C3767,6320 3774,6329 3780,6340C3786,6351 3788,6360 3786,6360C3783,6360 3776,6351 3770,6340Z" style="fill:rgb(236,236,236);fill-rule:nonzero;"/>
                <path id="path172" d="M3720,6260C3714,6249 3712,6240 3714,6240C3717,6240 3724,6249 3730,6260C3736,6271 3738,6280 3736,6280C3733,6280 3726,6271 3720,6260Z" style="fill:rgb(236,236,236);fill-rule:nonzero;"/>
                <path id="path174" d="M3688,6208C3680,6195 3664,6167 3651,6145C3625,6098 3654,6135 3688,6192C3712,6232 3712,6246 3688,6208Z" style="fill:rgb(236,236,236);fill-rule:nonzero;"/>
                <path id="path176" d="M3614,6088C3610,6081 3600,6064 3592,6050C3578,6026 3579,6026 3595,6045C3615,6069 3632,6100 3626,6100C3623,6100 3618,6094 3614,6088Z" style="fill:rgb(236,236,236);fill-rule:nonzero;"/>
                <path id="path178" d="M3386,5720C3284,5554 3200,5417 3200,5415C3200,5412 3230,5411 3268,5412C3324,5413 3327,5414 3287,5417C3241,5421 3239,5422 3243,5448C3246,5463 3321,5594 3410,5740C3499,5886 3574,6008 3577,6013C3579,6017 3579,6020 3577,6020C3574,6020 3489,5885 3386,5720Z" style="fill:rgb(236,236,236);fill-rule:nonzero;"/>
            </g>
        </g>
        <g id="flask.svg1" serif:id="flask.svg">
        </g>
    </g>
</svg>
